X:486
T:Lord Randolph's Bride #2
C:Joe Buchanan's Scottish Tome - Page 168.1
I:168 1
Z:Carl Allison
R:Polka
L:1/8
M:4/4
K:G
D | "G"G>A Bd | "G"dB Be | "G"dB c/B/A/G/ | "D7"FA AB |
"G"G>A "Em"Be | "G/D"d(e/f/) "C"g(f/e/) | "G"d(c/B/) "D7"A/B/c/d/ | "G"B"C"G "G7"G :|
d | "G"g>f "C"a/g/f/e/ | "G"dB Bd | "G"g>f "C"e/f/g/e/ | "Em"Be "C"e2 |
"D"d(f/g/) "Em"g(g/a/) | "G"b/a/g/f/ "C"g(f/e/) | "G"d(c/B/) "D"A/B/c/d/ | "G"BG G :|

